X: 39638
T: Temple Hill
R: reel
M: 4/4
K: Gdorian
DG G/G/G dGcG|dGcA FGAF|DG G/G/G dcde|fdcA FGAF|
DG G/G/G dGcG|dGcA FGAF|DG G/G/G dcde|fdcA FGAc||
d~g3 a2 ga|fdcA FGAc|d~g3 afga|fdcA GABc|
d~g3 afga|fdcA FGAc|d~g3 afga|fdcA AGGA||
B3d A~F3|GBAG FDCA|BG G/G/G A~F3|GBAF GABc|
A-B2B A~F3|GBAG FDCD|GBAc Bdfd|cAFA GABc||
[B3G3]c [A3F3]A|GBAG FDCD|BG G/G/G A~F3|GBAF GBAc|
A-B2B A~F3|GBAG FDCD|GBAc Bdfd|cAFA G3F||

